X: 4373
T: SEE THE CONQU'RING HERO COMES.
%R: air, march
B: James Kerr "Merry Melodies" v.4 p.40 #373
Z: 2016 John Chambers <jc:trillian.mit.edu>
M: C|
L: 1/8
K: G
|:\
d4 B3c | d4 G4 | ABcd c2B2 | B4 A4 |\
Bcde d2d2 | g4 d4 | dcBc B2A2 |[1 GDEF GABc :|[2 G6 z2 H||
BABc B2B2 | A4 G4 | c2B2 A2G2 | F6 f2 |\
e^def e2f2 | g4 e4 | f2ed ^c3d | d6 "_D.C."z2 |]

%%sep 1 1 500
%%sep 1 1 500

